svg/24/ear.svg

<svg width="24" height="24" viewBox="0 0 24 24" fill="currentColor" xmlns="http://www.w3.org/2000/svg"><path d="M11.8626 3.5C8.14552 3.5 5.44589 7.0345 6.42393 10.6206L6.47357 10.8027C6.58256 11.2023 6.34696 11.6146 5.94734 11.7236C5.54772 11.8326 5.13541 11.597 5.02643 11.1973L4.97678 11.0153C3.73851 6.47496 7.15647 2 11.8626 2C15.8045 2 19 5.1955 19 9.13735V9.56755C19 11.6455 18.1455 13.6321 16.637 15.0612L14.8847 16.7213C14.4241 17.1576 14.1012 17.7193 13.9559 18.3369L13.9134 18.5178C13.4333 20.5581 11.6127 22 9.51671 22C7.0222 22 5 19.9778 5 17.4833V17C5 16.5858 5.33579 16.25 5.75 16.25C6.16421 16.25 6.5 16.5858 6.5 17V17.4833C6.5 19.1494 7.85063 20.5 9.51671 20.5C10.9166 20.5 12.1326 19.5369 12.4532 18.1742L12.4958 17.9933C12.7082 17.0908 13.18 16.27 13.8531 15.6323L15.6054 13.9723C16.8149 12.8265 17.5 11.2337 17.5 9.56755V9.13735C17.5 6.02393 14.9761 3.5 11.8626 3.5Z"/><path d="M9.96703 11.6394C7.21771 9.73599 8.677 5.5 11.9391 5.5C13.8894 5.5 15.5 7.07988 15.5 9.04279V9.5C15.5 9.91421 15.1642 10.25 14.75 10.25C14.3358 10.25 14 9.91421 14 9.5V9.04279C14 7.92087 13.0736 7 11.9391 7C10.0656 7 9.34771 9.38622 10.8208 10.4061C13.2953 12.1192 12.0831 16 9.07344 16H8.5C8.08579 16 7.75 15.6642 7.75 15.25C7.75 14.8358 8.08579 14.5 8.5 14.5H9.07344C10.6125 14.5 11.2324 12.5154 9.96703 11.6394Z"/></svg>

<svg xmlns="http://www.w3.org/2000/svg" width="24" height="24" fill="currentColor" viewBox="0 0 24 24">
  <path d="M11.863 3.5c-3.718 0-6.417 3.535-5.44 7.12l.05.183a.75.75 0 1 1-1.447.394l-.05-.182C3.739 6.475 7.157 2 11.864 2A7.137 7.137 0 0 1 19 9.137v.43a7.567 7.567 0 0 1-2.363 5.494l-1.752 1.66c-.46.437-.784.998-.93 1.616l-.042.18A4.517 4.517 0 0 1 5 17.484V17a.75.75 0 0 1 1.5 0v.483a3.017 3.017 0 0 0 5.953.691l.043-.18a4.751 4.751 0 0 1 1.357-2.362l1.752-1.66A6.067 6.067 0 0 0 17.5 9.568v-.43A5.637 5.637 0 0 0 11.863 3.5Z"/>
  <path d="M9.967 11.64c-2.75-1.904-1.29-6.14 1.972-6.14 1.95 0 3.56 1.58 3.56 3.543V9.5a.75.75 0 1 1-1.5 0v-.457A2.058 2.058 0 0 0 11.94 7c-1.873 0-2.591 2.386-1.118 3.406C13.295 12.12 12.083 16 9.073 16H8.5a.75.75 0 0 1 0-1.5h.573c1.54 0 2.16-1.985.894-2.86Z"/>
</svg>
